X: 1
T: TRIP TO GALWAY -- JIG
B: Ryan's Mammoth Collection of Fiddle Tunes
R: jig
M: 6/8
L: 1/8
Z: Contributed 20000830142410 by John Chambers John.Chambers:weema.com
K: Dm
uG \
| vA2D DED | c3 G2F | E2C C"4"DC | E2F G2B \
|  A2D DED | c3 d2e | f2d e2^c   | d3 [d2F2] :|
|: ue \
| vfed a2d | fed a2d | "4"e2c  G2f   | e2f g2e \
|  fed a2d | fed a2d | "4"e2^c A=B^c | d3 [d2F2] :|
